src/icons/gazprom.svg

<svg width="162" height="77" viewBox="0 0 162 77" fill="none" xmlns="http://www.w3.org/2000/svg">
<path d="M50.0365 50.3428H60.3178V53.664H55.4269V77H50.0365V50.3428Z" fill="#0079C2"/>
<path d="M66.4133 66.9926L67.3371 53.664H67.6465L68.5704 66.9926H66.4133ZM60.4438 77H65.7215L66.221 69.9205H68.7626L69.2643 77H74.5398L71.7286 50.3428H63.2551L60.4438 77Z" fill="#0079C2"/>
<path d="M82.2597 67.67V72.6955C82.2597 73.3729 82.7901 73.5695 83.0995 73.5695C83.6079 73.5695 83.9615 73.1544 83.9615 72.6955V66.4901C83.9615 65.6598 83.8068 64.742 81.7956 64.742H79.6076V61.8141H81.884C83.4089 61.8141 83.9615 61.4645 83.9615 59.8258V54.538C83.9615 54.0792 83.6079 53.664 83.0995 53.664C82.7901 53.664 82.2597 53.8388 82.2597 54.538V58.8862H76.8671V55.1061C76.8671 53.2489 77.0881 50.3428 80.8673 50.3428H85.3317C89.111 50.3428 89.3541 53.2489 89.3541 55.1061V59.3669C89.3541 62.273 87.2987 63.0596 85.6853 62.994V63.2562C89.3099 63.1688 89.3541 65.922 89.3541 66.8615V72.2367C89.3541 74.1158 89.111 77 85.3317 77H80.8673C77.0881 77 76.8671 74.1158 76.8671 72.2367V67.67H82.2597Z" fill="#0079C2"/>
<path d="M92.8904 50.3428H105.377V77H99.9848V53.664H98.283V77H92.8904V50.3428Z" fill="#0079C2"/>
<path d="M114.306 65.0042V53.664H115.013C115.588 53.664 116.008 54.1447 116.008 54.9969V63.6714C116.008 64.5235 115.588 65.0042 115.013 65.0042H114.306ZM108.913 77H114.306V67.9322H117.4C121.157 67.9322 121.4 65.0479 121.4 63.1688V55.1061C121.4 53.2489 121.157 50.3428 117.4 50.3428H108.913V77Z" fill="#0079C2"/>
<path d="M132.031 72.6955C132.031 73.1544 131.677 73.5695 131.169 73.5695C130.86 73.5695 130.329 73.3729 130.329 72.6955V54.538C130.329 53.8388 130.86 53.664 131.169 53.664C131.677 53.664 132.031 54.0792 132.031 54.538V72.6955ZM124.937 72.2367C124.937 74.1158 125.18 77 128.937 77H133.423C137.181 77 137.424 74.1158 137.424 72.2367V55.1061C137.424 53.2489 137.181 50.3428 133.423 50.3428H128.937C125.18 50.3428 124.937 53.2489 124.937 55.1061V72.2367Z" fill="#0079C2"/>
<path d="M154.972 50.3428H162V77H156.607V60.2846H156.409L153.624 77H149.314L146.552 60.2846H146.353V77H140.96V50.3428H147.966L151.48 69.0902L154.972 50.3428Z" fill="#0079C2"/>
<path d="M43.0482 13.8967C41.3973 6.7517 37.26 0.939558 36.6898 0C35.7881 1.33286 32.4884 6.46764 30.8109 12.1487C28.9788 18.5071 28.7091 24.1444 29.3412 29.6725C29.9689 35.2225 32.3403 40.9254 32.3403 40.9254C33.6001 43.897 35.4875 47.109 36.7163 48.6822C38.5175 46.3661 42.657 39.4614 43.9477 30.4591C44.666 25.4336 44.6969 21.0417 43.0482 13.8967ZM36.6898 46.8905C35.8787 45.3828 34.6189 42.5204 34.4996 38.063C34.4686 33.7804 36.208 30.0877 36.7163 29.3229C37.1694 30.0877 38.6678 33.2997 38.8468 37.6915C38.9684 41.9742 37.5274 45.3609 36.6898 46.8905ZM42.5686 26.0235C42.5068 28.7548 42.1774 31.639 41.7575 33.3652C41.9078 30.3936 41.5476 26.2202 40.858 22.9427C40.1685 19.687 38.2169 14.2245 36.6588 11.7117C35.2201 14.1152 33.4476 18.8348 32.5193 22.9208C31.5867 27.0068 31.5601 31.9668 31.5601 33.4526C31.3126 32.2071 30.6938 27.7279 30.8684 23.2486C31.0143 19.5559 31.8894 15.7321 32.369 13.9841C34.199 8.15012 36.2699 4.41373 36.6588 3.82377C37.0478 4.41373 39.6557 9.02411 41.0083 13.853C42.3543 18.6819 42.6261 23.3141 42.5686 26.0235Z" fill="#0079C2"/>
<path d="M39.49 50.343H26.9389V58.6679C26.9499 58.6679 26.9587 58.6461 26.9698 58.6461C29.9269 55.7181 34.7228 55.7181 37.6821 58.6461C40.6392 61.5521 40.6392 66.2936 37.6821 69.2215C37.6689 69.2434 37.6556 69.2434 37.6424 69.2652C37.6269 69.2652 37.6114 69.2871 37.5981 69.3089C34.6477 72.1932 30.7933 73.6353 26.9389 73.6353C23.0668 73.6353 19.1947 72.1932 16.242 69.2652C11.035 64.1304 10.4184 56.1551 14.3877 50.343C14.9226 49.5564 15.5392 48.8135 16.242 48.1143C19.1947 45.1864 23.0668 43.7442 26.9389 43.7442V23.7295C12.0605 23.7295 0 35.6378 0 50.343C0 65.0482 12.0605 76.9783 26.9389 76.9783C34.6963 76.9783 41.6846 73.7227 46.5999 68.5442V50.343H39.49Z" fill="#0079C2"/>
</svg>

<svg xmlns="http://www.w3.org/2000/svg" width="162" height="77" fill="none"><path fill="#0079C2" d="M50.036 50.343h10.282v3.321h-4.891V77h-5.39V50.343ZM66.413 66.993l.924-13.329h.31l.923 13.329h-2.157ZM60.443 77h5.279l.499-7.08h2.542l.501 7.08h5.276l-2.811-26.657h-8.474L60.444 77ZM82.26 67.67v5.025c0 .678.53.875.84.875a.862.862 0 0 0 .862-.874V66.49c0-.83-.155-1.748-2.166-1.748h-2.188v-2.928h2.276c1.525 0 2.078-.35 2.078-1.988v-5.288a.862.862 0 0 0-.862-.874c-.31 0-.84.175-.84.874v4.348h-5.393v-3.78c0-1.857.221-4.763 4-4.763h4.465c3.779 0 4.022 2.906 4.022 4.763v4.26c0 2.907-2.055 3.694-3.669 3.628v.262c3.625-.087 3.67 2.666 3.67 3.606v5.375c0 1.879-.244 4.763-4.023 4.763h-4.465c-3.779 0-4-2.884-4-4.763V67.67h5.393ZM92.89 50.343h12.487V77h-5.392V53.664h-1.702V77H92.89V50.343ZM114.306 65.004v-11.34h.707c.575 0 .995.48.995 1.333v8.674c0 .852-.42 1.333-.995 1.333h-.707ZM108.913 77h5.393v-9.068h3.094c3.757 0 4-2.884 4-4.763v-8.063c0-1.857-.243-4.763-4-4.763h-8.487V77ZM132.031 72.695a.863.863 0 0 1-.862.875c-.309 0-.84-.197-.84-.874V54.537c0-.7.531-.874.84-.874.508 0 .862.415.862.874v18.157Zm-7.094-.458c0 1.879.243 4.763 4 4.763h4.486c3.758 0 4.001-2.884 4.001-4.763v-17.13c0-1.858-.243-4.764-4.001-4.764h-4.486c-3.757 0-4 2.906-4 4.763v17.13ZM154.972 50.343H162V77h-5.393V60.285h-.198L153.624 77h-4.31l-2.762-16.715h-.199V77h-5.393V50.343h7.006l3.514 18.747 3.492-18.747ZM43.048 13.897C41.398 6.752 37.26.94 36.69 0c-.902 1.333-4.202 6.468-5.88 12.149-1.831 6.358-2.1 11.995-1.469 17.524.628 5.55 3 11.252 3 11.252 1.26 2.972 3.146 6.184 4.375 7.757 1.801-2.316 5.941-9.22 7.232-18.223.718-5.025.749-9.417-.9-16.562ZM36.69 46.89c-.811-1.508-2.071-4.37-2.19-8.828-.031-4.283 1.708-7.975 2.216-8.74.453.765 1.952 3.977 2.13 8.368.122 4.283-1.319 7.67-2.156 9.2Zm5.879-20.867c-.062 2.73-.392 5.615-.812 7.341.15-2.971-.21-7.145-.899-10.422-.69-3.256-2.641-8.719-4.2-11.231-1.438 2.403-3.21 7.123-4.139 11.209-.932 4.086-.959 9.046-.959 10.532-.247-1.246-.866-5.725-.692-10.204.146-3.693 1.021-7.517 1.501-9.265 1.83-5.834 3.9-9.57 4.29-10.16.389.59 2.997 5.2 4.35 10.029 1.345 4.829 1.617 9.461 1.56 12.17Z"/><path fill="#0079C2" d="M39.49 50.343H26.939v8.325c.01 0 .02-.022.03-.022 2.958-2.928 7.754-2.928 10.713 0 2.957 2.906 2.957 7.648 0 10.576-.013.021-.026.021-.04.043-.015 0-.03.022-.044.044-2.95 2.884-6.805 4.326-10.66 4.326-3.871 0-7.743-1.442-10.696-4.37a14.823 14.823 0 0 1-1.854-18.922 15.18 15.18 0 0 1 1.854-2.229c2.953-2.928 6.825-4.37 10.697-4.37V23.73C12.06 23.73 0 35.638 0 50.343s12.06 26.635 26.939 26.635a27.041 27.041 0 0 0 19.66-8.434V50.343H39.49Z"/></svg>
